X:7680
T:Ivy Leaf
R:Reel
S:
H:
N:See 48
D:Milltown Session
Z:Adrian Scahill
M:4/4
L:1/8
K:A
E3B GEBG|EBGB AFDF|E3B GEBE|EDB,C D3B|\
EBB2 GBB2| eBGB AFDF|E3B GEBG|EDB,C DEFA||\
Beed BABc|d3B AFDA|Beed BAFE|FDB,C DEFA|\
Beed BABc|dcdB AFDF|E3F =G3A|(3Bcd ef dBAF||
% These tunes have been compiled and transcribed by Adrian Scahill. 
% They are free for personal use only, and may not be published 
% or reproduced for profit. 
% 
% This file may not be included on a web page for download without
% permission from me. 
%
% I have not generally included ornamentation or variations - and each
% tune is notated as closely as possible to the player's performance. 
% Following from this I have not tried to 'correct' what may be variatio
